resources/svg/solid/bridge-lock.svg

<svg fill="currentColor" xmlns="http://www.w3.org/2000/svg" viewBox="0 0 640 512"><!--! Font Awesome Free 6.2.0 by @fontawesome - https://fontawesome.com License - https://fontawesome.com/license/free (Icons: CC BY 4.0, Fonts: SIL OFL 1.1, Code: MIT License) Copyright 2022 Fonticons, Inc. --><path d="M32 64c0-17.7 14.3-32 32-32H576c17.7 0 32 14.3 32 32s-14.3 32-32 32H536v64h-8c-61.9 0-112 50.1-112 112v24.6c-9.9 5.8-18.2 14.1-23.8 24.1c-17.6-20-43.4-32.7-72.2-32.7c-53 0-96 43-96 96v64c0 17.7-14.3 32-32 32H160c-17.7 0-32-14.3-32-32V384c0-53-43-96-96-96V160h72V96H64C46.3 96 32 81.7 32 64zM408 96v64h80V96H408zm-48 64V96H280v64h80zM152 96v64h80V96H152zM528 240c-17.7 0-32 14.3-32 32v48h64V272c0-17.7-14.3-32-32-32zm-80 32c0-44.2 35.8-80 80-80s80 35.8 80 80v48c17.7 0 32 14.3 32 32V480c0 17.7-14.3 32-32 32H448c-17.7 0-32-14.3-32-32V352c0-17.7 14.3-32 32-32V272z"/></svg>

<svg fill="currentColor" xmlns="http://www.w3.org/2000/svg" viewBox="0 0 640 512"><!--! Font Awesome Free 6.1.2 by @fontawesome - https://fontawesome.com License - https://fontawesome.com/license/free (Icons: CC BY 4.0, Fonts: SIL OFL 1.1, Code: MIT License) Copyright 2022 Fonticons, Inc. --><path d="M32 64C32 46.33 46.33 32 64 32H576C593.7 32 608 46.33 608 64C608 81.67 593.7 96 576 96H536V160H528C466.1 160 416 210.1 416 272V296.6C406.1 302.3 397.8 310.7 392.2 320.7C374.6 300.7 348.8 287.1 320 287.1C266.1 287.1 224 330.1 224 384V448C224 465.7 209.7 480 192 480H160C142.3 480 128 465.7 128 448V384C128 330.1 85.02 287.1 32 287.1V159.1H104V95.1H64C46.33 95.1 32 81.67 32 63.1V64zM408 160H488V96H408V160zM360 160V96H280V160H360zM152 160H232V96H152V160zM528 192C572.2 192 608 227.8 608 272V320C625.7 320 640 334.3 640 352V480C640 497.7 625.7 512 608 512H448C430.3 512 416 497.7 416 480V352C416 334.3 430.3 320 448 320V272C448 227.8 483.8 192 528 192zM528 240C510.3 240 496 254.3 496 272V320H560V272C560 254.3 545.7 240 528 240z"/></svg>
